X:1
T:Day Tripper.6.mid
M:4/4
L:1/8
K:C
zzzzzzzzzE2G2G^2 | B2E3D3D3B2F^3 | B2D3E3zzzzzzz | zzzzzzzzzzzzz | zzzzzzzzzzzzz | zzzzzzzzzzzzz | zzzzzzzzzzzzz | zzzzzzzzzzzzz | zzzzzzzzzzzzz | zzzzzzzzzzzzz | zzzzzzzzzzzzz | zzzF^2zzzzE3z | zzzzF^2zzzzzz | zzzzzzzzzzC^3 | zE3zzzzF^2zzB2zC^3zE3zzzzA5zz | F^5zzzG2zzzF^5zzzzzzzzzzzzzzz | zzzzC^2zzzzzz | zzzzzzzzzzzzz | zzzzzzzzzzzzz | zzzzzzzzzzzzz | zzzzzzzzzzzzz | zzzzzzzzzzzzz | zzzzzzzzzzzzz | zzzzzzzzzzzzz | zzzzzzzzzzzzz | zzzzzzzzzzzzz | E3zzzzzF^2zzz | zzzE3zzzzzzzz | zB2zC^3zzE3zz | zzzzF^2zzzzE3 | zzzzzA5zzF^5z | zzG2zzzF^5zzz | zzzzzzzzzzzzz | zzzC^2zzzzB1z | E2zzzzzzzzzB2 | zD3zB2zzB2zA3 | zB2zzA3zzF^3C^3zC^4zB2zzzB2zz | zB2zzE3zD3zB2 | zzB2zA3zB2zzA3zzF^3E3zC^4zB2z | zzB2zzzzzzB2z | F^3zD3zzzzB2z | zA3zzzzzA3zB2 | zF^3G^3zC^4zz | zB2zzzzB3zzB2 | zA3zzzzzB2zF^4zzzzF^4zA4zB3zz | E4zzB2zzzB4zz | zC^4zzzzzB2zz | zzzzzzB2E4zB4 | zzzzB2zzzzzzE4zzzzzzzzzzzzzzz | zzzzzzzzzzzzz | zzzzzzzzzzzzz | zzzzzzzzzzzzz | zzzzzzzzzzzzz | zzzzzzzzzzzzz | zzzzzzzzzzzzz | zzzzzzzzzzzzz | zzzzzzzzzzzzz | zzzzzzzF^2zzz | zE3zzzzzF^2zz | zzzzzzzzzzzzz | zC^3zE3zzzzF^2zzB2zC^3zE3zzzz | C^6A5zzzzG2zz | zC^6zzzzzzF^2 | zzzzzzzzzF2zz | zzzC^2zzzzE2z | zzzzzzzzG2zG^2B2E3D3D3B2F^3B2 | D3E3zzzzzzzzz | zzzzzzzzzzzzz | zzzzzzzzzzzzz | zzzzzzzzzzzzz | zzzzzzzzzzzzz | zzzzzzzzzzzzz | zzzzzzzzzzzzz | zzzzzzzzzzzzz | zzzzzzzzzzzzz | zzzzzzzzzzzzz | 
